gy/si-glyph-usb.svg

<svg viewBox="0 0 17 16" xmlns="http://www.w3.org/2000/svg" class="si-glyph si-glyph-usb" height="1em" width="1em">
  <path d="M13.074 3.098v1.84h.968V6.46L9.907 7.98V2.93L12 2.921 9.542 0 7.031 2.959h2.058v7.566l-4.13-1.099V7.92A1.495 1.495 0 0 0 4.5 4.999a1.495 1.495 0 0 0-.465 2.919V10l5.054 1.585v1.479A1.496 1.496 0 0 0 9.5 16a1.5 1.5 0 0 0 1.5-1.5 1.5 1.5 0 0 0-1.093-1.438V9.01l5.04-1.949V4.937h.97v-1.84h-2.843v.001Z" fill="#434343" class="si-glyph-fill" fill-rule="evenodd"/>
</svg>

<svg viewBox="0 0 17 16" version="1.1" xmlns="http://www.w3.org/2000/svg" class="si-glyph si-glyph-usb" height="1em" width="1em">
  <g stroke="none" stroke-width="1" fill="none" fill-rule="evenodd">
    <path d="M13.074,3.098 L13.074,4.938 L14.042,4.938 L14.042,6.46 L9.907,7.98 L9.907,2.93 L12,2.921 L9.542,2.27373675e-13 L7.031,2.959 L9.089,2.959 L9.089,10.525 L4.959,9.426 L4.959,7.92 C5.562,7.725 6,7.166 6,6.499 C6,5.671 5.328,4.999 4.5,4.999 C3.672,4.999 3,5.671 3,6.499 C3,7.164 3.436,7.722 4.035,7.918 L4.035,10 L9.089,11.585 L9.089,13.064 C8.462,13.244 8,13.815 8,14.5 C8,15.328 8.672,16 9.5,16 C10.328,16 11,15.328 11,14.5 C11,13.814 10.535,13.241 9.907,13.062 L9.907,9.01 L14.947,7.061 L14.947,4.937 L15.917,4.937 L15.917,3.097 L13.074,3.097 L13.074,3.098 Z" fill="#434343" class="si-glyph-fill"/>
  </g>
</svg>
